web/public/icons/link.svg

<svg xmlns="http://www.w3.org/2000/svg" xmlns:xlink="http://www.w3.org/1999/xlink" fill="none" version="1.1" width="256" height="256" viewBox="0 0 256 256"><defs><clipPath id="master_svg0_1179_046989"><rect x="0" y="0" width="256" height="256" rx="0"/></clipPath></defs><g clip-path="url(#master_svg0_1179_046989)"><path d="M12.623999633789062,41.867001223449705C5.3339996337890625,56.18100022344971,5.3339996337890625,74.91699722344971,5.3339996337890625,126.6990062234497L5.3339996337890625,129.3010062234497C5.3339996337890625,181.0880162234497,5.3339996337890625,199.81801622344972,12.623999633789062,214.13301622344972C19.038921633789062,226.7242462234497,29.275768633789063,236.96109622344972,41.86700063378906,243.3760162234497C56.180999633789064,250.6660062234497,74.91699963378906,250.6660062234497,126.69900963378906,250.6660062234497L129.30100963378908,250.6660062234497C181.08800963378906,250.6660062234497,199.81899963378908,250.6660062234497,214.13300963378907,243.3760162234497C226.72423963378907,236.96109622344972,236.96108963378907,226.7242462234497,243.37600963378907,214.13301622344972C250.66599963378906,199.8190162234497,250.66599963378906,181.0830162234497,250.66599963378906,129.3010062234497L250.66599963378906,126.6999962234497C250.66599963378906,74.91299122344971,250.66599963378906,56.182999223449706,243.37600963378907,41.867997223449706C236.96108963378907,29.276768223449707,226.72423963378907,19.039922223449707,214.13300963378907,12.624996223449706C199.81901963378905,5.334996223449707,181.08300963378906,5.334996223449707,129.30100963378908,5.334996223449707L126.69999963378906,5.334996223449707C74.91299463378907,5.334996223449707,56.18199963378906,5.334996223449707,41.86799663378906,12.624996223449706C29.276763633789063,19.039917223449706,19.039916633789062,29.276765223449708,12.623999633789062,41.867001223449705L12.623999633789062,41.867001223449705ZM89.90899663378906,160.0000062234497L101.33899663378907,160.0000062234497C107.18991963378906,160.05627622344971,111.90339963378906,164.8153162234497,111.90339963378906,170.66650622344972C111.90339963378906,176.5177062234497,107.18991963378906,181.2767562234497,101.33899663378907,181.3330162234497L89.90899663378906,181.3330162234497C75.35399663378907,181.3330162234497,62.94399663378906,176.1060062234497,52.666995633789064,165.6430062234497C42.452995633789065,155.2430162234497,37.338996633789066,142.68800622344972,37.338996633789066,127.99999622344971C37.338996633789066,113.31199622344971,42.447997633789065,100.7629972234497,52.666995633789064,90.35699222344971C62.94399663378906,79.8929952234497,75.36000063378906,74.6669892234497,89.90899663378906,74.6669892234497L101.33899663378907,74.6669892234497C107.27015963378906,74.60979922344971,112.10885963378907,79.40206622344971,112.10885963378907,85.33349322344971C112.10885963378907,91.2649202234497,107.27014963378906,96.0571872234497,101.33899663378907,95.9999892234497L89.90899663378906,95.9999892234497C81.32199863378906,95.9999892234497,73.97899663378907,99.10398622344971,67.88800063378906,105.30698822344971C61.74399963378906,111.56298622344971,58.67200063378906,119.12498622344971,58.67200063378906,127.99998622344971C58.67200063378906,136.8750062234497,61.74399963378906,144.4370062234497,67.88800063378906,150.6929962234497C73.97799663378906,156.8959962234497,81.32299763378906,160.0000062234497,89.91999863378906,160.0000062234497L89.90899663378906,160.0000062234497ZM154.66698963378906,160.0000062234497L166.09598963378906,160.0000062234497C174.68299963378905,160.0000062234497,182.02599963378907,156.8959962234497,188.11698963378907,150.6929962234497C194.26098963378905,144.4370062234497,197.33298963378905,136.8750062234497,197.33298963378905,127.99998622344971C197.33298963378905,119.12498622344971,194.26098963378905,111.56298622344971,188.11698963378907,105.30698822344971C182.02698963378907,99.10398622344971,174.68297963378907,95.9999892234497,166.09598963378906,95.9999892234497L154.66598963378905,95.9999892234497C148.81515963378905,95.94357022344971,144.10183963378907,91.18458222344971,144.10183963378907,85.33349322344971C144.10183963378907,79.4824042234497,148.81515963378905,74.72340822344971,154.66598963378905,74.6669892234497L166.09597963378906,74.6669892234497C180.65597963378906,74.6669892234497,193.06597963378906,79.8939862234497,203.33896963378905,90.35699222344971C213.55697963378907,100.75699322344971,218.66697963378905,113.31199622344971,218.66697963378905,127.99999622344971C218.66697963378905,142.68800622344972,213.55697963378907,155.2370062234497,203.33896963378905,165.6430062234497C193.06696963378906,176.1070162234497,180.65096963378906,181.3330162234497,166.09597963378906,181.3330162234497L154.66598963378905,181.3330162234497C148.81505963378908,181.2767562234497,144.10157963378907,176.5177062234497,144.10157963378907,170.66650622344972C144.10157963378907,164.8153162234497,148.81505963378908,160.0562662234497,154.66598963378905,160.0000062234497L154.66698963378906,160.0000062234497ZM90.66699263378906,138.6669962234497C84.77577163378906,138.6669962234497,79.99999263378906,133.8912262234497,79.99999263378906,127.99998622344971C79.99999263378906,122.1087662234497,84.77577163378906,117.33298622344971,90.66699263378906,117.33298622344971L165.33298963378905,117.33298622344971C171.22420963378906,117.33298622344971,175.99999963378906,122.1087662234497,175.99999963378906,127.99998622344971C175.99999963378906,133.8912262234497,171.22420963378906,138.6669962234497,165.33298963378905,138.6669962234497L90.66699263378906,138.6669962234497Z" fill="#62BD3E" fill-opacity="1"/></g></svg>

<svg width="256" height="256" xmlns="http://www.w3.org/2000/svg"><defs><style/></defs><path d="M12.624 41.867c-7.29 14.314-7.29 33.05-7.29 84.832v2.602c0 51.787 0 70.517 7.29 84.832a66.907 66.907 0 0 0 29.243 29.243c14.314 7.29 33.05 7.29 84.832 7.29h2.602c51.787 0 70.518 0 84.832-7.29a66.907 66.907 0 0 0 29.243-29.243c7.29-14.314 7.29-33.05 7.29-84.832V126.7c0-51.787 0-70.517-7.29-84.832a66.907 66.907 0 0 0-29.243-29.243c-14.314-7.29-33.05-7.29-84.832-7.29H126.7c-51.787 0-70.518 0-84.832 7.29a66.907 66.907 0 0 0-29.243 29.243zM89.909 160h11.43a10.667 10.667 0 0 1 0 21.333h-11.43c-14.555 0-26.965-5.227-37.242-15.69-10.214-10.4-15.328-22.955-15.328-37.643 0-14.688 5.109-27.237 15.328-37.643 10.277-10.464 22.693-15.69 37.242-15.69h11.43a10.667 10.667 0 1 1 0 21.333h-11.43c-8.587 0-15.93 3.104-22.021 9.307-6.144 6.256-9.216 13.818-9.216 22.693 0 8.875 3.072 16.437 9.216 22.693C73.978 156.896 81.323 160 89.92 160zm64.758 0h11.429c8.587 0 15.93-3.104 22.021-9.307 6.144-6.256 9.216-13.818 9.216-22.693 0-8.875-3.072-16.437-9.216-22.693-6.09-6.203-13.434-9.307-22.021-9.307h-11.43a10.667 10.667 0 0 1 0-21.333h11.43c14.56 0 26.97 5.227 37.243 15.69 10.218 10.4 15.328 22.955 15.328 37.643 0 14.688-5.11 27.237-15.328 37.643-10.272 10.464-22.688 15.69-37.243 15.69h-11.43a10.667 10.667 0 0 1 0-21.333zm-64-21.333a10.667 10.667 0 0 1 0-21.334h74.666a10.667 10.667 0 0 1 0 21.334H90.667z" fill="#FF8928"/></svg>
